!!!SOCIAL_FUNCTION:	songs for success in ball game
!!!PDT:	1956
!!!OTL: No_226_Ball_Game_Song_(i).krn
!!!LANG: Non-Tone
!!!LING_GROUP: Muskogean
!!!REG: Florida
**kern
*staff1
=1-
*clefF4
*k[b-]
*M3/8
4r
16r
16F\
=2||
*M2/4
4c\
16c\LL
16B-\
16A\
16G\JJ
=3
16B-\LK
8.G\J
8F\
8r
=4
16F\LL
16F\J
8D\J
8F\L
8D\J
=5
16F\LL
16F\J
8F\J
8F\L
8G\J
=6
8A\L
16.G\L
32F\JJk
8.G\L
16F\Jk
=7
4G\
16F\
16r
16.G\LL
32A\JJk
=8
4G\
8F\
8r
=9
16F\LL
16F\J
8D\J
16F\
16r
8D\
=10||
*M3/4
4B-\
4r
(16A\LL
16F\J)
8F\J
=11
8d\L
8d\J
8c\L
8d\J
8c\L
8B-\J
=12||
*M2/4
4A\
8F\
8r
=13||
*M3/4
8d\L
8d\J
8c\L
8B-\J
16A\LL
16A\J
8B-\J
=14||
*M2/4
4A\
8F\
8r
=15||
*M3/4
8F\L
8A\J
8A\L
8c\J
8c\L
8B-\J
=16||
*M2/4
4A\
8F\L
8F\J
=17
8c\
8r
(16A\LL
16G\
16F\
16F\JJ)
==
*-
